X:40
T:Queen’s March,The. JJo.040
S:J.Jones MS,1801,N.Shrops.
N:More dotted variation of JJ35, also with a few differences in the melody.
A:N Shropshire
Z:Neil Brookes 2006
M:4/4
L:1/8
Q:1/2=70
K:C
c4G4|E2C>C E>E G>G|c3cd3e|fedc cBAG|!
c4G4|E2C>C E>E G>G|c2eg agfe|d2d>dd4::!
f3d cBAG|e2c2e2c2|f3d cBAG|g2e2g2e2|!
c3cd3e|cBAG g3f|e2e>fd2d>e|c2c>cc4:|

